X:121
T:Reel 121
M:4/4
K:Dmix
L:1/8
d2cB cGEG|ABGE cEEG|AddB cBAG|EGAB cGEF|Dddc AGEG|ABAB cABG|D2EG ABcA|GEcE EDD2|fefg e2dc|AAAB cAG2|fafe dcdf|eaag eddc|eaaf gfge|fgef dfed|cAGE A2GE|FAEA EDD2|
